svgs/sharp-solid/question.svg

<svg xmlns="http://www.w3.org/2000/svg" viewBox="0 0 320 512"><!--! Font Awesome Pro 6.6.0 by @fontawesome - https://fontawesome.com License - https://fontawesome.com/license (Commercial License) Copyright 2024 Fonticons, Inc. --><path d="M80 160c0-35.3 28.7-64 64-64l32 0c35.3 0 64 28.7 64 64l0 9.3c0 19.6-9 38.2-24.5 50.3l-75.3 59.2L128 288.4l0 15.6 0 48 64 0 0-32.4L255.1 270C286 245.7 304 208.6 304 169.3l0-9.3c0-70.7-57.3-128-128-128l-32 0C73.3 32 16 89.3 16 160l0 16 64 0 0-16zM200 400l-80 0 0 80 80 0 0-80z"/></svg>

<svg xmlns="http://www.w3.org/2000/svg" viewBox="0 0 320 512"><!--! Font Awesome Pro 6.5.2 by @fontawesome - https://fontawesome.com License - https://fontawesome.com/license (Commercial License) Copyright 2024 Fonticons, Inc. --><path d="M80 160c0-35.3 28.7-64 64-64h32c35.3 0 64 28.7 64 64v9.3c0 19.6-9 38.2-24.5 50.3l-75.3 59.2L128 288.4V304v48h64V319.6L255.1 270C286 245.7 304 208.6 304 169.3V160c0-70.7-57.3-128-128-128H144C73.3 32 16 89.3 16 160v16H80V160zM200 400H120v80h80V400z"/></svg>
